**kern	**silbe
*ICvox	*
*E:	*
*M4/4	*
*clefG2	*
r;	.
=1	=1
1r	.
=2	=2
1r	.
=3	=3
1r	.
=4	=4
1r	.
=5	=5
1r	.
=6	=6
1r	.
=7	=7
1r	.
=8	=8
1r	.
=9	=9
8E	Get
8E	your
8E	mo-
8E	-tor
4G	run-
4[E	-nin'
=10	=10
4E]	_
4r	.
2r	.
=11	=11
8d	Head
8d	out
8d	on
8d	the
4e	high-
4e	-way
=12	=12
1r	.
=13	=13
8E	Look-
8E	-in'
8G	for
8E	ad-
4A	-ven-
4[G	-ture
=14	=14
4G]	_
4r	.
4r	.
8B	and
8d	what
=15	=15
8e	e-
8e	-ver
8.e	comes
8.e	are
16A	way
16A-	_
4[G	_
=16	=16
4G]	_
4r	.
2r	.
=17	=17
4r	.
4g	Yeah
8f#	dar-
8e	-lin'
8e	go
8e	and
=18	=18
8e	make
8d	_
8d	it
4d	ha-
4.e	-ppen
=19	=19
4r	.
8d	Take
8d	the
4c#	world
8c#	in
8c#	a
=20	=20
8c#	love
4B	em-
4.B	-brace
4r	.
=21	=21
4r	.
4d	Fire
8c#	all
8B	of
8A	your
8[B	guns
=22	=22
4B]	_
8E	at
4G	once
4.A	and
=23	=23
4r	.
4d	ex-
8c#	-plode
8B	in-
8A	-to
8B	space
=24	=24
4B-	_
4.B	_
8r	.
4r	.
=25	=25
8E	I
8E	like
8E	smoke
8E	and
4G	light-
4[E	-nin'
=26	=26
4E]	_
4r	.
2r	.
=27	=27
8d	Heav-
8d	-y
8d	me-
8d	-tal
4e	thun-
4e	-der
=28	=28
1r	.
=29	=29
8E	Rac-
8E	-in'
8G	with
8E	the
4A	wind
4[G	_
=30	=30
4G]	_
4r	.
4r	.
8B	and
8d	the
=31	=31
8e	feel-
8e	-in'
8e	that
8e	I'm
4G	un-
4[E	-der
=32	=32
4E]	_
4r	.
2r	.
=33	=33
4r	.
4g	Yeah
8f#	dar-
8e	-lin'
8e	go
8e	and
=34	=34
8e	make
8d	_
8d	it
4d	ha-
4.e	-ppen
=35	=35
4r	.
8d	Take
8d	the
4c#	world
8c#	in
8c#	a
=36	=36
8c#	love
4B	em-
4.B	-brace
4r	.
=37	=37
4r	.
4d	Fire
8c#	all
8B	of
8A	your
8[B	guns
=38	=38
4B]	_
8E	at
4G	once
4.A	and
=39	=39
4r	.
4d	ex-
8c#	-plode
8B	in-
8A	-to
8B	space
=40	=40
4B-	_
4.B	_
8r	.
8B	Like
8B	a
=41	=41
4e	true
4r	.
4e	nat-
8e	-ure's
8e	chind
=42	=42
16d	_
16c#	_
4.B	_
4r	.
8B	we
8d	were
=43	=43
4e	born
4r	.
8e	born
8e	to
8e	be
8[e	wild
=44	=44
4e]	_
4r	.
4r	.
8B	we
8d	can
=45	=45
8e	climb
8c#	_
8c#	so
4e	high
8c#	_
4r	.
=46	=46
8r	.
8B	I
8g	ne-
4f#	-ver
8r	.
8d	wan-
8e	-na
=47	=47
8f#	die
2..d	_
=48	=48
1r	.
=49	=49
2e	Born
8e	to
4.e	be
=50	=50
4.d	wild
16e	_
16d	_
4c#	_
4d	_
=51	=51
1r	.
=52	=52
1r	.
=53	=53
2e	Born
8e	to
4.e	be
=54	=54
4.d	wild
16e	_
16d	_
4c#	_
4d	_
=55	=55
1r	.
=56	=56
1r	.
=57	=57
1r	.
=58	=58
1r	.
=59	=59
1r	.
=60	=60
1r	.
=61	=61
1r	.
=62	=62
1r	.
=63	=63
1r	.
=64	=64
1r	.
=65	=65
1r	.
=66	=66
1r	.
=67	=67
1r	.
=68	=68
1r	.
=69	=69
1r	.
=70	=70
1r	.
=71	=71
1r	.
=72	=72
1r	.
=73	=73
1r	.
=74	=74
1r	.
=75	=75
1r	.
=76	=76
1r	.
=77	=77
1r	.
=78	=78
1r	.
=79	=79
8E	Get
8E	your
8E	mo-
8E	-tor
4G	run-
4[E	-nin'
=80	=80
4E]	_
4r	.
2r	.
=81	=81
8d	Head
8d	out
8d	on
8d	the
4e	high-
4e	-way
=82	=82
1r	.
=83	=83
8E	Look-
8E	-in'
8G	for
8E	ad-
4A	-ven-
4[G	-ture
=84	=84
4G]	_
4r	.
4r	.
8B	and
8d	what
=85	=85
8e	e-
8e	-ver
8.e	comes
8.e	are
16A	way
16A-	_
4[G	_
=86	=86
4G]	_
4r	.
2r	.
=87	=87
4r	.
4g	Yeah
8f#	dar-
8e	-lin'
8e	go
8e	and
=88	=88
8e	make
8d	_
8d	it
4d	ha-
4.e	-ppen
=89	=89
4r	.
8d	Take
8d	the
4c#	world
8c#	in
8c#	a
=90	=90
8c#	love
4B	em-
4.B	-brace
4r	.
=91	=91
4r	.
4d	Fire
8c#	all
8B	of
8A	your
8[B	guns
=92	=92
4B]	_
8E	at
4G	once
4.A	and
=93	=93
4r	.
4d	ex-
8c#	-plode
8B	in-
8A	-to
8B	space
=94	=94
4B-	_
4.B	_
8r	.
8B	Like
8B	a
=95	=95
4e	true
4r	.
4e	nat-
8e	-ure's
8e	chind
=96	=96
16d	_
16c#	_
4.B	_
4r	.
8B	we
8d	were
=97	=97
4e	born
4r	.
8e	born
8e	to
8e	be
8[e	wild
=98	=98
8e]	_
8r	.
4r	.
4r	.
8B	we
8d	can
=99	=99
8e	climb
8c#	_
8c#	so
4e	high
8c#	_
4r	.
=100	=100
8r	.
8B	I
8g	ne-
4f#	-ver
8r	.
8d	wan-
8e	-na
=101	=101
8f#	die
2..d	_
=102	=102
1r	.
=103	=103
2e	Born
8e	to
4.e	be
=104	=104
4.d	wild
16e	_
16d	_
4c#	_
4d	_
=105	=105
1r	.
=106	=106
1r	.
=107	=107
2e	Born
8e	to
4.e	be
=108	=108
4.d	wild
16e	_
16d	_
4c#	_
4d	_
=109	=109
1r	.
=110	=110
1r	.
=111	=111
1r	.
=112	=112
1r	.
=113	=113
1r	.
=114	=114
1r	.
=115	=115
1r	.
=116	=116
1r	.
=117	=117
1r	.
=118	=118
1r	.
=119	=119
1r	.
=120	=120
1r	.
=121	=121
1r	.
=122	=122
1r	.
=123	=123
1r	.
=124	=124
1r	.
=125	=125
1r	.
=126	=126
1r	.
r;	.
r;	.
*-	*-
!!!ENC: Nathaniel Condit-Schultz